assets/images/night-icon.svg

<?xml version="1.0" encoding="UTF-8"?>
<svg width="82px" height="62px" viewBox="0 0 82 62" version="1.1" xmlns="http://www.w3.org/2000/svg" xmlns:xlink="http://www.w3.org/1999/xlink">
    <title>night-icon</title>
    <g id="Page-1" stroke="none" stroke-width="1" fill="none" fill-rule="evenodd">
        <g id="iPhone-11-Copy-2" transform="translate(-293.000000, -1589.000000)" fill="#000000" fill-rule="nonzero">
            <g id="night-icon" transform="translate(293.000000, 1589.000000)">
                <path d="M17.7021643,0.0079938729 C17.6257511,0.0218199152 17.5493397,0.0425563242 17.4798727,0.0632945028 C16.6532255,0.249934571 16.0697101,0.989580939 16.0905504,1.83291466 L16.0905504,3.60253482 L14.3122179,3.60253482 C14.256645,3.60253482 14.2010721,3.60253482 14.1454992,3.60253482 C13.1660274,3.65092331 12.4018993,4.48043276 12.450526,5.45510592 C12.4991527,6.42977908 13.3327461,7.19016362 14.3122179,7.14177513 L16.0905504,7.14177513 L16.0905504,8.91139529 C16.0836042,9.54735253 16.4170416,10.1418352 16.9727705,10.4667251 C17.5284994,10.7847046 18.2092665,10.7847046 18.7649954,10.4667251 C19.3207243,10.1418352 19.6541616,9.54735253 19.6472155,8.91139529 L19.6472155,7.14177513 L21.425548,7.14177513 C22.0646363,7.14868727 22.6620457,6.81688349 22.9885351,6.26387719 C23.3080802,5.71087089 23.3080802,5.03343906 22.9885351,4.48043276 C22.6620457,3.92742646 22.0646363,3.59562268 21.425548,3.60253482 L19.6472155,3.60253482 L19.6472155,1.83291466 C19.6680558,1.32138472 19.4596565,0.830591185 19.0914866,0.484961363 C18.7163704,0.132421175 18.2092665,-0.0403946207 17.7021643,0.0079938729 Z M60.8267282,0.0079938729 L58.4926668,0.450398912 C51.8586524,1.76378976 46.419457,6.40904267 44.0437149,12.5612369 C43.6894373,13.4806094 44.1479146,14.503671 45.0718134,14.856213 C45.9957123,15.208755 47.0238108,14.7525239 47.3780885,13.8331513 C49.0730616,9.45057731 52.7339263,6.12562561 57.2144903,4.59794616 C57.7702192,14.8354748 66.1269932,23.0683565 76.5538566,23.0683565 C76.9359207,23.0683565 77.2901983,22.9784935 77.6653144,22.9577553 C76.9775995,25.9785518 75.6924768,28.7643214 73.5529205,30.8657454 C72.844367,31.5500911 72.837419,32.6768419 73.525134,33.381924 C74.212849,34.0870079 75.3451471,34.0939201 76.0537006,33.4095743 C79.3047148,30.222876 81.4512172,25.8817765 81.8332813,21.0775339 L82,18.7549074 L79.6659385,19.1973125 C78.6517342,19.3977768 77.6236357,19.5291162 76.5538566,19.5291162 C67.6969265,19.5291162 60.5488638,12.4160732 60.5488638,3.60253482 C60.5488638,3.20851827 60.5697041,2.79376355 60.6044367,2.33062033 L60.8267282,0.0079938729 Z M39.2088734,17.7594961 C29.4072041,17.7594961 21.425548,25.7020486 21.425548,35.4556976 C21.425548,36.1746058 21.5575341,36.8589516 21.6478396,37.5571216 C15.5626079,38.3589807 10.7555528,43.3429495 10.7555528,49.6126589 C10.7555528,56.4353746 16.3475746,62 23.2038805,62 L60.5488638,62 C69.3641133,62 76.5538566,54.8454806 76.5538566,46.0734186 C76.5538566,37.3013566 69.3641133,30.1468372 60.5488638,30.1468372 C58.9928228,30.1468372 57.5826603,30.6168925 56.1586053,31.0316473 C54.1510351,23.4485488 47.4475555,17.7594961 39.2088734,17.7594961 Z M3.47550398,21.2434358 C3.39909081,21.2572618 3.32267942,21.2779982 3.25321241,21.2987364 C2.4265652,21.4853765 1.84304984,22.2250228 1.86389012,23.0683565 C1.80831723,23.0683565 1.75274434,23.0683565 1.69717145,23.0683565 C0.717699673,23.116745 -0.0464284774,23.9462545 0.00219824749,24.9209276 C0.0508249723,25.8956008 0.884418348,26.6559854 1.86389012,26.6075969 C1.85694395,27.2435541 2.1903813,27.8380368 2.74611022,28.1629266 C3.30183914,28.4809061 3.98260617,28.4809061 4.53833509,28.1629266 C5.09406401,27.8380368 5.42750136,27.2435541 5.42055519,26.6075969 C6.05964345,26.614509 6.65705292,26.2827052 6.98354233,25.7296989 C7.30308734,25.1766926 7.30308734,24.4992608 6.98354233,23.9462545 C6.65705292,23.3932482 6.05964345,23.0614444 5.42055519,23.0683565 C5.44139547,22.5568266 5.23299624,22.0660331 4.86482627,21.7204032 C4.48971014,21.3678631 3.98260617,21.1950473 3.47550398,21.2434358 Z M39.2088734,21.2987364 C46.34999,21.2987364 52.2198762,26.5039077 53.268815,33.2989731 L53.6022523,35.5662989 L55.7140222,34.6814888 C57.200598,34.0524437 58.8261041,33.6860775 60.5488638,33.6860775 C67.4468485,33.6860775 72.9971915,39.2092283 72.9971915,46.0734186 C72.9971915,52.9376088 67.4468485,58.4607597 60.5488638,58.4607597 L23.2038805,58.4607597 C18.2717873,58.4607597 14.3122179,54.5205907 14.3122179,49.6126589 C14.3122179,44.7047289 18.2717873,40.7645581 23.2038805,40.7645581 C23.2108267,40.7645581 23.3080802,40.757646 23.5373179,40.7645581 L25.8713793,40.8751594 L25.3712233,38.6078335 C25.1350394,37.5778598 24.9822131,36.5340599 24.9822131,35.4556976 C24.9822131,27.6168342 31.3314169,21.2987364 39.2088734,21.2987364 Z" id="Shape"></path>
            </g>
        </g>
    </g>
</svg>

<svg width="82" height="62" xmlns="http://www.w3.org/2000/svg"><path d="M17.7022.008a2.087 2.087 0 00-.2223.0553c-.8267.1866-1.4102.9263-1.3893 1.7696v1.7696h-1.9451c-.9795.0484-1.7436.878-1.695 1.8526.0487.9747.8822 1.735 1.8617 1.6867h1.7784v1.7696a1.7783 1.7783 0 00.8822 1.5553 1.8028 1.8028 0 001.7922 0 1.7783 1.7783 0 00.8822-1.5553V7.1418h1.7783c.6391.0069 1.2365-.325 1.563-.878a1.7788 1.7788 0 000-1.7834c-.3265-.553-.9239-.8848-1.563-.8779h-1.7783V1.833c.0209-.5115-.1875-1.0023-.5557-1.348a1.7832 1.7832 0 00-1.3893-.477zm43.1245 0l-2.334.4424c-6.634 1.3134-12.0732 5.9586-14.449 12.1108-.3543.9194.1042 1.9425 1.0281 2.295.924.3526 1.952-.1037 2.3063-1.023 1.695-4.3826 5.3558-7.7076 9.8364-9.2353.5557 10.2376 8.9125 18.4705 19.3394 18.4705.382 0 .7363-.09 1.1114-.1106-.6877 3.0208-1.9728 5.8065-4.1124 7.908-.7085.6843-.7155 1.811-.0278 2.5161.6877.7051 1.82.712 2.5286.0277 3.251-3.1867 5.3975-7.5278 5.7796-12.332L82 18.7548l-2.334.4424c-1.0143.2005-2.0424.3318-3.1121.3318-8.857 0-16.005-7.113-16.005-15.9266 0-.394.0208-.8087.0555-1.2719L60.8267.008zM39.209 17.7595c-9.8017 0-17.7834 7.9425-17.7834 17.6962 0 .719.132 1.4033.2223 2.1014-6.0852.8019-10.8922 5.7858-10.8922 12.0556C10.7556 56.4354 16.3476 62 23.2039 62h37.345c8.8152 0 16.005-7.1545 16.005-15.9266 0-8.772-7.1898-15.9266-16.005-15.9266-1.556 0-2.9662.47-4.3903.8848-2.0076-7.583-8.711-13.2721-16.9497-13.2721zm-35.7334 3.484a2.087 2.087 0 00-.2223.0552c-.8266.1867-1.4102.9263-1.3893 1.7697h-.1667c-.9795.0483-1.7436.8779-1.695 1.8525.0486.9747.8822 1.735 1.8617 1.6867a1.7783 1.7783 0 00.8822 1.5553 1.8028 1.8028 0 001.7922 0 1.7783 1.7783 0 00.8823-1.5553c.639.007 1.2365-.3249 1.563-.8779a1.7788 1.7788 0 000-1.7834c-.3265-.553-.924-.8849-1.563-.878.0208-.5115-.1876-1.0023-.5558-1.3479a1.7832 1.7832 0 00-1.3893-.477zm35.7334.0552c7.141 0 13.011 5.2052 14.06 12.0003l.3334 2.2673 2.1117-.8848c1.4866-.629 3.1121-.9954 4.8349-.9954 6.898 0 12.4483 5.5231 12.4483 12.3873 0 6.8642-5.5504 12.3874-12.4483 12.3874h-37.345c-4.9321 0-8.8917-3.9402-8.8917-8.8481 0-4.908 3.9596-8.8481 8.8917-8.8481.007 0 .1042-.007.3334 0l2.334.1106-.5-2.2674c-.2363-1.03-.389-2.0737-.389-3.1521 0-7.8389 6.3491-14.157 14.2266-14.157z" fill="#000" fill-rule="nonzero"/></svg>
